X:3111
T:Stalt Vesselil
C:anon.
O:Denmark
Z:Transcribed by Frank Nordberg - http://www.musicaviva.com
F:http://abc.musicaviva.com/tunes/denmark/stalt-vesselil/stalt-vesselil-1.abc
M:4/2 %org.: C|
L:1/2
K:Gdor
G/G/G FD|(GB) A2|GA/B/ AG|FD2 A|
w:Ri-se-li g\aar o-ver bu--re O-ver de val-ske mi-le Hun
B/B/B dc|(AF) cc/d/|BG F/D/E/F/|GG2|]
w:v\aek-ker op jom-fru'r pru--de Der de ven-der tr\ae-de til de bor-ge
W:
W:Riseli g\aar over bure
W:Over de valske mile
W:Hun v\aekker op jomfru'r prude
W:Der de vender tr\aede til de borge
W:
W:
W:  From Musica Viva - http://www.musicaviva.com
W:  the Internet center for free sheet music downloads.

